!!!!SEGMENT: pl-kk--kk-i-2--044_anonim--spiritus-sancti-gratia.krn
!!!cenid: 16xx:1668
!!!COM: Anonim
!!!COM-rismid: pe30004985
!!!CDT:
!!!CNT:
!!!OTL: Spiritus Sancti gratia
!!!PDT:
!!!AGN: Sacred
!!!SMS-siglum: PL-Kk
!!!SMS-shelfmark: Kk.I.2
!!!SMS-shelfwork: 044 W
!!!NIFC-rismid: 300258062
!!!URL-scan: http://repozytorium.nifc.pl/skany/pl-kk-nut--i-2
!!!ONB-nifc: skany: C: 0069; A: 0172; T: 0272; B: 0372;
!!!key: G:mix
**kern	**text	**text	**text	**text	**text	**kern	**text	**text	**text	**text	**text	**kern	**text	**text	**text	**text	**text	**kern	**text	**text	**text	**text	**text
*part4	*part4	*part4	*part4	*part4	*part4	*part3	*part3	*part3	*part3	*part3	*part3	*part2	*part2	*part2	*part2	*part2	*part2	*part1	*part1	*part1	*part1	*part1	*part1
*staff4	*staff4	*staff4	*staff4	*staff4	*staff4	*staff3	*staff3	*staff3	*staff3	*staff3	*staff3	*staff2	*staff2	*staff2	*staff2	*staff2	*staff2	*staff1	*staff1	*staff1	*staff1	*staff1	*staff1
*I""BASSUS	*	*	*	*	*	*I""TENOR	*	*	*	*	*	*I""ALTUS	*	*	*	*	*	*I""CANTUS	*	*	*	*	*
*ICvox	*	*	*	*	*	*ICvox	*	*	*	*	*	*ICvox	*	*	*	*	*	*ICvox	*	*	*	*	*
*clefF4	*	*	*	*	*	*clefC4	*	*	*	*	*	*clefC3	*	*	*	*	*	*clefC1	*	*	*	*	*
*k[]	*	*	*	*	*	*k[]	*	*	*	*	*	*k[]	*	*	*	*	*	*k[]	*	*	*	*	*
*C:	*	*	*	*	*	*C:	*	*	*	*	*	*C:	*	*	*	*	*	*C:	*	*	*	*	*
*M2/1	*	*	*	*	*	*M2/1	*	*	*	*	*	*M2/1	*	*	*	*	*	*M2/1	*	*	*	*	*
*met(C|)	*	*	*	*	*	*met(C|)	*	*	*	*	*	*met(C|)	*	*	*	*	*	*met(C|)	*	*	*	*	*
*MM120	*	*	*	*	*	*MM120	*	*	*	*	*	*MM120	*	*	*	*	*	*MM120	*	*	*	*	*
=1-	=1-	=1-	=1-	=1-	=1-	=1-	=1-	=1-	=1-	=1-	=1-	=1-	=1-	=1-	=1-	=1-	=1-	=1-	=1-	=1-	=1-	=1-	=1-
*2\right	*	*	*	*	*	*2\right	*	*	*	*	*	*2\right	*	*	*	*	*	*2\right	*	*	*	*	*
1G	1. [S]pi-	2. Di-	3. Di-	4. Mi-	5. Er-	1G	1. [S]pi-	2. Di-	3. Di-	4. Mi-	5. Er-	1d	1. [S]pi-	2. Di-	3. Di-	4. Mi-	5. Er-	1g	1. [S]pi-	2. Di-	3. Di-	4. Mi-	5. Er-
2G\	-ri-	.	.	-sit	-go	2G/	-ri-	.	.	-sit	-go	2d\	-ri-	.	.	-sit	-go	2g/	-ri-	.	.	-sit	-go
!LO:TX:t=P:problem:kreska pseudotaktowa	!	!	!	!	!	!LO:TX:t=P:problem:kreska pseudotaktowa	!	!	!	!	!	!LO:TX:t=P:problem:kreska pseudotaktowa	!	!	!	!	!	!LO:TX:t=P:problem:kreska pseudotaktowa	!	!	!	!	!
2G\	-tus	-cens	-cens	e-	Nunc	2G/	-tus	-cens	-cens	e-	Nunc	2d\	-tus	-cens	-cens	e-	Nunc	2g/	-tus	-cens	-cens	e-	Nunc
=2-	=2-	=2-	=2-	=2-	=2-	=2-	=2-	=2-	=2-	=2-	=2-	=2-	=2-	=2-	=2-	=2-	=2-	=2-	=2-	=2-	=2-	=2-	=2-
(2.F\	San-	e-	e-	-is	cum	2.A/	San-	e-	e-	-is	cum	1c	San-	e-	e-	-is	cum	2.cc\	San-	e-	e-	-is	cum
!	!	!	!	!	!	!LO:TX:t=P:problem:kreska pseudotaktowa	!	!	!	!	!	!	!	!	!	!	!	!	!	!	!	!	!
4E\)	.	.	-is:	.	.	4B\	.	.	.	per	.	.	.	.	.	.	.	4b\	.	.	.	per	.
2F\	-cti	-is:	cum	per	.	2c\	-cti	-is	-is	Mun-	.	2f\	.	-is	-is	per	.	2a/	.	.	-is	Mun-	.
!	!	!	!	!	!	!LO:TX:t=P:problem:kreska pseudotaktowa	!	!	!	!	!	!LO:TX:t=P:problem:kreska pseudotaktowa	!	!	!	!	!	!LO:TX:t=P:problem:kreska pseudotaktowa	!	!	!	!	!
2G\	gra-	ac-	.	Mun-	tri-	2B\	.	ac-	cum	-di	tri-	2e\	-cti	ac-	cum	Mun-	tri-	2g/	-cti	-is	cum	-di	tri-
=3-	=3-	=3-	=3-	=3-	=3-	=3-	=3-	=3-	=3-	=3-	=3-	=3-	=3-	=3-	=3-	=3-	=3-	=3-	=3-	=3-	=3-	=3-	=3-
2F\	.	-ci-	ste-	-di	-pu-	2c\	Gra-	-ci-	ste-	cli-	-pu-	2f\	gra-	.	ste-	.	-pu-	2a\	Gra-	ac-	ste-	cli-	-pu-
!	!	!	!	!	!	!LO:TX:t=P:problem:kreska pseudotaktowa	!	!	!	!	!	!	!	!	!	!	!	!	!	!	!	!	!
2C/	-ti-	.	-te-	cli-	-di-	2e\	-ti-	.	-te-	.	.	4e\	.	-ci-	.	-di	.	1cc	.	-ci-	-te-	.	.
!	!	!	!	!	!	!	!	!	!	!	!	!LO:TX:t=P:problem:kreska pseudotaktowa	!	!	!	!	!	!	!	!	!	!	!
.	.	.	.	.	.	.	.	.	.	.	.	4f\	-ti-	.	-te-	cli-	.	.	.	.	.	.	.
1G	-a	-pi-	-ri-	-ma-	-o	1d	-a	-pi-	-ri-	-ma-	-di-	1g	-a	-pi-	-ri-	-ma-	-di-	.	.	.	.	.	.
.	.	.	.	.	.	.	.	.	.	.	.	.	.	.	.	.	.	2b\	-ti-	-pi-	-ri-	-ma-	-di-
=4-	=4-	=4-	=4-	=4-	=4-	=4-	=4-	=4-	=4-	=4-	=4-	=4-	=4-	=4-	=4-	=4-	=4-	=4-	=4-	=4-	=4-	=4-	=4-
!LO:TX:t=P:problem:kreska pseudotaktowa	!	!	!	!	!	!LO:TX:t=P:problem:kreska pseudotaktowa	!	!	!	!	!	!LO:TX:t=P:problem:kreska pseudotaktowa	!	!	!	!	!	!LO:TX:t=P:problem:kreska pseudotaktowa	!	!	!	!	!
1C	.	-te	-tis	-ta	.	1c	.	-te	-tis	-ta	-o	1e	.	-te	-tis	-ta	-o	1cc	-a	-te	-tis	-ta	-o
2r	.	.	.	.	.	2r	.	.	.	.	.	2r	.	.	.	.	.	2r	.	.	.	.	.
2C/	A-	Spi-	Co-	Fa-	Be-	2e\	A-	Spi-	Co-	Fa-	Be-	2g\	A-	Spi-	Co-	Fa-	Be-	2cc\	A-	Spi-	Co-	Fa-	Be-
=5-	=5-	=5-	=5-	=5-	=5-	=5-	=5-	=5-	=5-	=5-	=5-	=5-	=5-	=5-	=5-	=5-	=5-	=5-	=5-	=5-	=5-	=5-	=5-
2G\	-po-	-ri-	-ram	-ri	-ne-	2d\	-po-	-ri-	-ram	-ri	-ne-	2g\	-po-	-ri-	-ram	-ri	-ne-	2dd\	-po-	-ri-	-ram	-ri	-ne-
!LO:TX:t=P:problem:kreska pseudotaktowa	!	!	!	!	!	!LO:TX:t=P:problem:kreska pseudotaktowa	!	!	!	!	!	!LO:TX:t=P:problem:kreska pseudotaktowa	!	!	!	!	!	!LO:TX:t=P:problem:kreska pseudotaktowa	!	!	!	!	!
2G\	-sto-	-tum	Re-	Ver-	-di-	2d\	-sto-	-tum	Re-	Ver-	-di-	2g\	-sto-	-tum	Re-	Ver-	-di-	2dd\	-sto-	-tum	Re-	Ver-	-di-
1A	-lo-	San-	-gi-	.	-ca-	1c	-lo-	San-	-gi-	-bis	-ca-	2.e\	-lo-	San-	-gi-	.	-ca-	1ee	-lo-	San-	-gi-	.	-ca-
.	.	.	.	.	.	.	.	.	.	.	.	4d\	.	.	-bus	.	.	.	.	.	.	.	.
=6-	=6-	=6-	=6-	=6-	=6-	=6-	=6-	=6-	=6-	=6-	=6-	=6-	=6-	=6-	=6-	=6-	=6-	=6-	=6-	=6-	=6-	=6-	=6-
!	!	!	!	!	!	!LO:TX:t=P:problem:kreska pseudotaktowa	!	!	!	!	!	!LO:TX:t=P:problem:kreska pseudotaktowa	!	!	!	!	!	!	!	!	!	!	!
2.F\	-rum	.	-bus	-bis	-mus	1f-\	-rum	.	-bus	.	-mus	1c	-rum	-ctum	et	-bis	-mus	2.a\	-rum	-ctum	-bus	-bis	.
.	.	.	.	.	.	.	.	-ctum	et	po-	.	.	.	.	.	.	.	.	.	.	.	.	.
!	!	!	!	!	!	!	!	!	!	!	!	!	!	!	!	!	!	!LO:TX:t=P:problem:kreska pseudotaktowa	!	!	!	!	!
4G\	.	-ctum	et	po-	.	.	.	.	.	.	.	.	.	.	.	.	.	4b\	.	.	et	.	.
2A\	.	ho-	Prin-	-ten-	.	2e\	pec-	ho-	Prin-	-ten-	D(o-	2g\	pec-	ho-	Prin-	po-	D(o-	2cc\	.	ho-	Prin-	po-	-mus
2B\	pec-	.	-ci-	-ti-	Do-	2d\	-to-	.	-ci-	-ti-	.	2a\	.	.	-ci-	-ten-	.	1dd\	pec-	.	-ci-	-ten-	D(o-
=7-	=7-	=7-	=7-	=7-	=7-	=7-	=7-	=7-	=7-	=7-	=7-	=7-	=7-	=7-	=7-	=7-	=7-	=7-	=7-	=7-	=7-	=7-	=7-
1A	-to-	-di-	-pi-	-am	-mi-	1e	-ra	-di-	-pi-	-am	-mi)-	1a	-to-	-di-	-pi-	-ti-	-mi)-	.	.	.	.	.	.
.	.	.	.	.	.	.	.	.	.	.	.	.	.	.	.	.	.	2cc\	-to-	-di-	-pi-	-ti-	-mi-
!LO:TX:t=P:problem:kreska pseudotaktowa	!	!	!	!	!	!LO:TX:t=P:problem:kreska pseudotaktowa	!	!	!	!	!	!LO:TX:t=P:problem:kreska pseudotaktowa	!	!	!	!	!	!LO:TX:t=P:problem:kreska pseudotaktowa	!	!	!	!	!
1D	-ra	-e	-bus	.	-no	1d#	.	-e	-bus	.	-no	1f	-ra	-e	-bus	-am	-no	1dd	-ra	-e	-bus	-am	-n)o
=8-	=8-	=8-	=8-	=8-	=8-	=8-	=8-	=8-	=8-	=8-	=8-	=8-	=8-	=8-	=8-	=8-	=8-	=8-	=8-	=8-	=8-	=8-	=8-
2r	.	.	.	.	.	2r	.	.	.	.	.	2r	.	.	.	.	.	2r	.	.	.	.	.
!	!	!	!	!	!	!LO:TX:t=P:problem:kreska pseudotaktowa	!	!	!	!	!	!LO:TX:t=P:problem:kreska pseudotaktowa	!	!	!	!	!	!	!	!	!	!	!
2D/	Re-	Qui	No-	Ut	Lau-	2dny\	re-	Qui	No-	Ut	Lau-	2f\	re-	Qui	No-	Ut	Lau-	2dd\	re-	Qui	No-	Ut	Lau-
2C/	-ple-	Vos	-li-	prae-	-de-	2e\	-ple-	Vos	-li-	prae-	-de-	2g\	-ple-	Vos	-li-	prae-	-de-	2cc\	-ple-	Vos	-li-	p(rae)-	-de-
!	!	!	!	!	!	!LO:TX:t=P:problem:kreska pseudotaktowa	!	!	!	!	!	!	!	!	!	!	!	!LO:TX:t=P:problem:kreska pseudotaktowa	!	!	!	!	!
2G\	-vit	do-	-te	-di-	-tur	2d\	-vit	do-	-te	-di-	-tur	2a\	-vit	do-	-te	-di-	-tur	2b\	-vit	do-	-te	-di-	-tur
=9-	=9-	=9-	=9-	=9-	=9-	=9-	=9-	=9-	=9-	=9-	=9-	=9-	=9-	=9-	=9-	=9-	=9-	=9-	=9-	=9-	=9-	=9-	=9-
2.A\	su-	-ce-	prae-	-ca-	San-	2.c\	su-	-ce-	prae-	-ca-	San-	2.e\	su-	-ce-	prae-	-ca-	San-	2.a/	su-	-ce-	p(rae)-	-ca-	S(an-
!LO:TX:t=P:problem:kreska pseudotaktowa	!	!	!	!	!	!	!	!	!	!	!	!LO:TX:t=P:problem:kreska pseudotaktowa	!	!	!	!	!	!LO:TX:t=P:problem:kreska pseudotaktowa	!	!	!	!	!
!	!	!	!	!	!	!LO:TX:t=P:problem:kreska pseudotaktowa	!	!	!	!	!	!LO:SIC:v:t=custos c	!	!	!	!	!	!	!	!	!	!	!
4G\	.	.	.	.	.	4B\	.	.	-me-	.	.	4d\	.	.	-me-	.	.	4b\	.	.	.	.	.
!	!	!	!	!	!	!LO:SIC:v:t=custos d	!	!	!	!	!	!LO:LB:g=original	!	!	!	!	!	!	!	!	!	!	!
2F\	-a	.	-me-	-rent	.	2A/	-a	-bit	-di-	-rent	.	2c/	-a	-bit	-di-	-rent	-cta	2cc\	-a	-bit	-me-	-rent	-c)ta
!	!	!	!	!	!	!LO:LB:g=original	!	!	!	!	!	!	!	!	!	!	!	!	!	!	!	!	!
2G\	gra-	-bit	-di-	.	-cta	1d\	gra-	Om-	-ta-	Va-	.	2.g'\	gra-	Om-	-ta-	Va-	Tri-	1b\	gra-	om-	-di-	Va-	Tri-
=10-	=10-	=10-	=10-	=10-	=10-	=10-	=10-	=10-	=10-	=10-	=10-	=10-	=10-	=10-	=10-	=10-	=10-	=10-	=10-	=10-	=10-	=10-	=10-
2GG/	.	om-	-ta-	Va-	Tri-	.	.	.	.	.	.	.	.	.	.	.	.	.	.	.	.	.	.
.	.	.	.	.	.	.	.	.	.	.	.	4f\	.	.	.	.	.	.	.	.	.	.	.
!LO:TX:t=P:problem:kreska pseudotaktowa	!	!	!	!	!	!	!	!	!	!	!	!LO:TX:t=P:problem:kreska pseudotaktowa	!	!	!	!	!	!	!	!	!	!	!
2AA/	.	.	.	.	.	4c\	.	.	.	.	-cta	2e\	.	.	.	.	.	4a/	.	.	-ta-	.	.
!	!	!	!	!	!	!LO:TX:t=P:problem:kreska pseudotaktowa	!	!	!	!	!	!	!	!	!	!	!	!LO:TX:t=P:problem:kreska pseudotaktowa	!	!	!	!	!
.	.	.	.	.	.	4B\	.	.	.	.	.	.	.	.	.	.	.	4g/	.	.	.	.	.
!	!	!	!	!	!	!	!	!	!	!	!	!	!	!	!	!	!	!LO:SIC:v:t=custos g	!	!	!	!	!
2D/	-ti-	-ni-	-vi	.	-ni-	2A/	.	.	-vi	.	Tri-	2d\	.	.	-vi	.	.	2f/	.	.	-vi	.	.
!	!	!	!	!	!	!	!	!	!	!	!	!	!	!	!	!	!	!LO:LB:g=original	!	!	!	!	!
2E\	.	.	Quo-	.	.	2G/	.	.	Quo-	-ri-	.	2c/	.	.	Quo-	.	.	1g/	.	.	Que-	.	.
=11-	=11-	=11-	=11-	=11-	=11-	=11-	=11-	=11-	=11-	=11-	=11-	=11-	=11-	=11-	=11-	=11-	=11-	=11-	=11-	=11-	=11-	=11-	=11-
!LO:TX:t=P:problem:kreska pseudotaktowa	!	!	!	!	!	!	!	!	!	!	!	!	!	!	!	!	!	!	!	!	!	!	!
1D	-a	-a	-me-	-ri-	-tas	1A	-ti-	-ni-	-me-	-js	-ni-	1d	-ti-	-ni-	-me-	-ri-	-ni-	.	.	.	.	.	.
.	.	.	.	.	.	.	.	.	.	.	.	.	.	.	.	.	.	2f/	-ti-	-ni-	-me-	-ri-	-ni-
!LO:TX:t=P:problem:kreska pseudotaktowa	!	!	!	!	!	!LO:TX:t=P:problem:kreska pseudotaktowa	!	!	!	!	!	!LO:TX:t=P:problem:kreska pseudotaktowa	!	!	!	!	!	!LO:TX:t=P:problem:kreska pseudotaktowa	!	!	!	!	!
1GG	.	.	-do	-js	.	1G	-a	-a	-do	.	-tas	1d	-a	-a	-do	-js	-tas	1g	-a	-a	-do	-js	-tas
=12-	=12-	=12-	=12-	=12-	=12-	=12-	=12-	=12-	=12-	=12-	=12-	=12-	=12-	=12-	=12-	=12-	=12-	=12-	=12-	=12-	=12-	=12-	=12-
2r	.	.	.	.	.	2r	.	.	.	.	.	2r	.	.	.	.	.	2r	.	.	.	.	.
!	!	!	!	!	!	!LO:TX:t=P:problem:kreska pseudotaktowa	!	!	!	!	!	!	!	!	!	!	!	!	!	!	!	!	!
2G\	Do-	fu-	aut	lin-	De-	2B\	Do-	Fu-	aut	Lin-	De-	2d\	Do-	Fu-	aut	Lin-	De-	2dd\	do-	Fu-	aut	Lin-	De-
2G\	-nans	-tu-	quid	-guis	-o	2B\	-nans	-tu-	quid	-guis	-o	2d\	-nans	-tu-	quid	-guis	-o	2dd\	-nans	-tu-	quid	-guis	-o
!	!	!	!	!	!	!LO:TX:t=P:problem:kreska pseudotaktowa	!	!	!	!	!	!LO:TX:t=P:problem:kreska pseudotaktowa	!	!	!	!	!	!LO:TX:t=P:problem:kreska pseudotaktowa	!	!	!	!	!
2G\	Lin-	-ra	lo-	om-	di-	2B\	Lin-	-ra	Lo-	om-	di-	2d\	Lin-	-ra	Lo-	om-	di-	2dd\	Lin-	-ra	Lo-	om-	di-
=13-	=13-	=13-	=13-	=13-	=13-	=13-	=13-	=13-	=13-	=13-	=13-	=13-	=13-	=13-	=13-	=13-	=13-	=13-	=13-	=13-	=13-	=13-	=13-
1C	-gua-	at-	-qua-	.	-ca-	1c	-gua-	at-	-qua-	.	-ca-	2.e\	-gua-	at-	-qua-	.	-ca-	1a	-gua-	at-	-qua-	.	-ca-
.	.	.	.	.	.	.	.	.	.	.	.	4d\	.	.	.	.	.	.	.	.	.	.	.
!LO:TX:t=P:problem:kreska pseudotaktowa	!	!	!	!	!	!	!	!	!	!	!	!LO:TX:t=P:problem:kreska pseudotaktowa	!	!	!	!	!	!LO:TX:t=P:problem:kreska pseudotaktowa	!	!	!	!	!
1F	-rum	-q(ue)	.	.	-mus	1A	-rum	-q(ue)	.	-ni	-mus	1c	-rum	-q(ue)	.	-ni	-mus	1cc	-rum	-q(ue)	.	-ni	-mus
=14-	=14-	=14-	=14-	=14-	=14-	=14-	=14-	=14-	=14-	=14-	=14-	=14-	=14-	=14-	=14-	=14-	=14-	=14-	=14-	=14-	=14-	=14-	=14-
*	*	*	*	*	*	*	*ij	*	*	*	*	*	*	*	*	*	*	*	*	*	*	*	*
1.D	ge-	prae-	.	-ni	gra-	1d	lin-	p(rae)-	.	.	gra-	2.d\	.	prae-	.	Cre-	gra-	1.b	ge-	prae-	.	Cre-	gra-
!	!	!	!	!	!	!	!	!	!	!	!	!LO:TX:t=P:problem:kreska pseudotaktowa	!	!	!	!	!	!	!	!	!	!	!
.	.	.	.	.	.	.	.	.	.	.	.	4e\	.	.	.	.	.	.	.	.	.	.	.
.	.	.	.	.	.	2d\	-gua-	-sen-	.	Cre-	.	2f\	.	.	.	-a-	.	.	.	.	.	.	.
2F\	-ne-	.	-mi-	Cre-	.	1c\	.	.	.	-a-	.	1f\	ge-	-sen-	-mi-	-tu-	.	1a/	-ne-	.	.	.	.
=15-	=15-	=15-	=15-	=15-	=15-	=15-	=15-	=15-	=15-	=15-	=15-	=15-	=15-	=15-	=15-	=15-	=15-	=15-	=15-	=15-	=15-	=15-	=15-
2G\	.	-sen-	-ni	-a-	.	.	.	.	.	.	.	.	.	.	.	.	.	.	.	.	.	.	.
!	!	!	!	!	!	!LO:TX:t=P:problem:kreska pseudotraktowa	!	!	!	!	!	!LO:TX:t=P:problem:kreska pseudotaktowa	!	!	!	!	!	!	!	!	!	!	!
2E\	.	-ti-	.	.	.	2B\	-rum	.	.	.	.	2e\	.	.	.	.	.	1g	-ra	-sen-	.	-a-	.
*	*	*	*	*	*	*	*ij	*	*	*	*	*	*	*	*	*	*	*	*	*	*	*	*
1D	-ra	-a	.	-tu-	-ti-	1A	ge-	-ti-	-mi-	-tu-	-ti-	1d	-ne-	-ti-	.	.	-ti-	.	.	.	.	.	.
!	!	!	!	!	!	!	!	!	!	!	!	!	!	!	!	!	!	!LO:TX:t=P:problem:kreska pseudotaktowa	!	!	!	!	!
.	.	.	.	.	.	.	.	.	.	.	.	.	.	.	.	.	.	2f/	.	-ti-	-mi-	-tu-	-ti-
=16-	=16-	=16-	=16-	=16-	=16-	=16-	=16-	=16-	=16-	=16-	=16-	=16-	=16-	=16-	=16-	=16-	=16-	=16-	=16-	=16-	=16-	=16-	=16-
!LO:TX:t=P:problem:kreska pseudotaktowa	!	!	!	!	!	!LO:TX:t=P:problem:kreska pseudotraktowa	!	!	!	!	!	!LO:TX:t=P:problem:kreska pseudotaktowa	!	!	!	!	!	!LO:TX:t=P:problem:kreska pseudotaktowa	!	!	!	!	!
!LO:TX:a:t=#	!	!	!	!	!	!	!	!	!	!	!	!	!	!	!	!	!	!	!	!	!	!	!
1GG	.	.	.	-rae	-as	1G	-ne-	-a	-ni	-rae	-as	1d	-ra	-a	-ni	-rae	-as	1g	.	-a	-ni	-rae	-as
!LO:LB:g=original	!	!	!	!	!	!	!	!	!	!	!	!	!	!	!	!	!	!	!	!	!	!	!
2r	.	.	.	.	.	2r	-ra	.	.	.	.	2r	.	.	.	.	.	2r	.	.	.	.	.
*	*	*	*	*	*	*	*Xij	*	*	*	*	*	*	*	*	*	*	*	*	*	*	*	*
*	*	*ij	*ij	*ij	*ij	*	*ij	*ij	*ij	*ij	*ij	*	*ij	*ij	*ij	*ij	*ij	*	*ij	*ij	*ij	*ij	*ij
!LO:TX:t=P:problem:kreska pseudotaktowa	!	!	!	!	!	!LO:TX:t=P:problem:kreska pseudotraktowa	!	!	!	!	!	!LO:TX:t=P:problem:kreska pseudotaktowa	!	!	!	!	!	!LO:TX:t=P:problem:kreska pseudotaktowa	!	!	!	!	!
2GG/	lin-	at-	aut	om-	di-	2G/	lin-	at-	aut	om-	di-	2d\	lin-	at-	aut	om-	di-	2b\	lin-	at-	aut	om-	di-
=17-	=17-	=17-	=17-	=17-	=17-	=17-	=17-	=17-	=17-	=17-	=17-	=17-	=17-	=17-	=17-	=17-	=17-	=17-	=17-	=17-	=17-	=17-	=17-
2GG/	-gua-	-q(ue)	quid	-ni	-ca-	2G/	-gua-	-q(ue)	quid	-ni	-ca-	2d\	-gua-	-q(ue)	quid	-ni	-ca-	2b\	-gua-	-q(ue)	quid	-ni	-ca-
!	!	!	!	!	!	!LO:TX:t=P:problem:kreska pseudotraktowa	!	!	!	!	!	!LO:TX:t=P:problem:kreska pseudotaktowa	!	!	!	!	!	!LO:TX:t=P:problem:kreska pseudotaktowa	!	!	!	!	!
2GG/	-rum	prae-	lo-	cre-	-mus	2G/	-rum	p(rae)-	Lo-	Cre-	-mus	2d\	-rum	prae-	Lo-	Cre-	-mus	2b\	-rum	prae-	Lo-	Cre-	-mus
2C/	ge-	-sen-	-qua-	-a-	gra-	2G/	ge-	-sen-	-qua-	-a-	gra-	2e\	ge-	-sen-	-qua-	-a-	gra-	2cc\	ge-	-sen-	-qua-	-a-	gra-
!LO:TX:t=P:problem:kreska pseudotaktowa	!	!	!	!	!	!	!	!	!	!	!	!	!	!	!	!	!	!	!	!	!	!	!
2C/	-ne-	-ti-	-mi-	-tu-	-ti-	2G/	-ne-	-ti-	-mi-	-tu-	-ti-	2e\	-ne-	-ti-	-mi-	-tu-	-ti-	2cc\	-ne-	-ti-	-mi-	-tu-	-ti-
=18-	=18-	=18-	=18-	=18-	=18-	=18-	=18-	=18-	=18-	=18-	=18-	=18-	=18-	=18-	=18-	=18-	=18-	=18-	=18-	=18-	=18-	=18-	=18-
!LO:TX:b:t=#	!	!	!	!	!	!	!	!	!	!	!	!	!	!	!	!	!	!	!	!	!	!	!
0GG;	-ra.	-a.	-ni.	-rae.	-as.	0G;;	-ra.	-a.	-ni.	-rae.	-as.	0d;;	-ra.	-a.	-ni.	-rae.	-as.	0b;<	-ra.	-a.	-ni.	-rae.	-as.
*	*	*Xij	*Xij	*Xij	*Xij	*	*Xij	*Xij	*Xij	*Xij	*Xij	*	*Xij	*Xij	*Xij	*Xij	*Xij	*	*Xij	*Xij	*Xij	*Xij	*Xij
!LO:TX:b:t=Repete	!	!	!	!	!	!	!	!	!	!	!	!	!	!	!	!	!	!	!	!	!	!	!
==	==	==	==	==	==	==	==	==	==	==	==	==	==	==	==	==	==	==	==	==	==	==	==
*-	*-	*-	*-	*-	*-	*-	*-	*-	*-	*-	*-	*-	*-	*-	*-	*-	*-	*-	*-	*-	*-	*-	*-
!!!RDF**kern: < = below
!!!system-decoration: s1,s2,s3,s4
!!!ENC: Arek Malec
!!!END: 2022-01-17
!!!ENC: Urszula Świątek
!!!END: 2022-01-23
